X:1
T:Diana triste
T:Vals para piano
T:Luis Antonio Calvo
T:Transcripción y adaptación: Juan Carlos Moreno, 2014-2015
T:Transcripción y adaptación: Juan Carlos Moreno, 2014-2015
T:Transcripción y adaptación: Juan Carlos Moreno, 2014-2015
C:Luis Antonio Calvo
Z:Transcripción y adaptación: Juan Carlos Moreno, 2014-2015
%%score { ( 1 3 5 ) | ( 2 4 ) }
L:1/8
Q:1/4=90
M:3/4
K:D
V:1 treble nm="Piano" snm="Pno."
V:3 treble 
V:5 treble 
V:2 bass 
V:4 bass 
V:1
"^Ad libitum" z F{/A} (GF^EF | fF^Ed c2- | cF){/A}(GF^EF | cFEc B2-) | B(d{/f}edcd | g)ABcdA | %6
 ^Gf!<(!dbee' | d'!<)!"_Ligero"[Q:1/4=100](3(c'/d'/c'/)ba^g=g |!>(! f(3(e/f/e/)dBAG | %9
 z!>)!"_a tempo"[Q:1/4=90] F{/A} (GF^EF | fF^Ed c2- | cF){/A}(GF^EF | cFEc B2) | %13
 z B{/d}(cB^A"_crescendo"!<(!B | d)^ABdfb!<)! | [dd'][Bb] [B,DGdd']2 !>![cefc']2 | %16
 !>![Bdfb]2 z2 z!p! F |:"_Gracioso"[Q:1/4=80] [ce][^B^d][ce][^Af] z [Ac] | [Fce][FBd][Fc][FB] z F | %19
 [CG][CF][CG][CGB] z [B,CG] | [^A,CF]4 z!<(! F | [EG][EF][EG][EA] z [GB] | %22
 [Ac][Fd][Ae][df] z [=cf]!<)! | [Bg][Bf][Bg] !fermata![cb]2!>(! [Bcg] | [Fcf]4 z f!>)! | %25
{/a} gf^efbB | fe^d e2 e |{/g} fe^deaA | edc d2 d |!<(!{/e} dc"_crescendo"^BcfF | edcdfF!<)! | %31
"_accelerando-----------------------------------------------------------------------------------------------------------------------"[Q:1/4=90] fe^defg | %32
[Q:1/4=100] fbBfbB |[Q:1/4=110] f!<(!bBfbB |[Q:1/4=120] gb!<)! Be bB |[Q:1/4=130] dd' dg d'b | %36
[Q:1/4=140] [fc'f']4 z"_a   tempo"[Q:1/4=90] f | [c'e'][^b^d'][c'e'] [ff']2 [^ac'] | %38
 [fc'e'][fbd'][fc'] [dfb]2 [df] | [da][cg][da] [eb]2 [Bcg] | (f2 f2) z B | %41
 [fa][^e^g][fa] [B^db]2 [df] | [=ca][Bg][Af] [Ge]2 [GB] | dcB d2 c |1 [DFB]4 z F :|2 [DFB]4 z F |: %46
[K:B]"^Lento"!p![Q:1/4=70] [Bd]2 ([Bd]2!<(! [GBe]2) | [FBf]2 ([FBf]2 [GBg]2!<)! | [ea])gfede | %49
!>(! [Ac]4- [Ac]F | [FB]2!>)! ([FB]2 [Fc]2) | [Fd]2 ((([Dd]2 [=DG-=d]2))) | %52
 [CGc]2 [CG][CA][^EB][Ec] |{/c} BAGAFF | [Bd]2"_cresc." ([Bd]2 [GBe]2) | %55
!<(! [FBf]2 ([FBf]2 [GBg]2)!<)! | =a2 gfe[Bd] | f2 e!>(!dcG | [GB]2!>)!!p! ([=GB]2 [Ec]2) | %59
 [FBd]2 ([GBe]2 [FBf]2) |1 !fermata![GBeg]6 | %61
"^Molto \nrallentando"[Q:1/4=60] ([EG]2[Q:1/4=50] [FA]2[Q:1/4=40] [EB]2) | %62
"^m. Tz." [A,EFc]2 [A,EFcf]4 | [faf']2!pp! [faf']4- | [faf']4 z F :|2 [GBeg]6 | %66
"^Molto\nrallentando"!p! ([EG]2 [FA]2 [EB]2) |"^m. Tz." !fermata!f4 d>"_Lentamente----"((d | %68
 B>))f [Bdfb]>f'!pp!!ppp!!8va(! [bd'f'b']2- | !fermata![bd'f'b']6!8va)! |] %70
V:2
!p! B,,,2 ([B,D]2 F,2) | C,,2 ([B,C]2 C,2) | F,,,2 ([^A,E]2 F,2) | B,,,2 (^A,2 B,)=A, | G,6 | F,6 | %6
 E,,6 | [A,,,A,,]2 [A,CE=G] z z2 | [D,,D,]2 [A,DF] z z2 |!p! B,,,2 ([B,D]2 F,2) | %10
 C,,2 ([B,C]2 C,2) | F,,,2 ([^A,E]2 F,2) | B,,,2 (^A,2 B,)=A, | G,6 | F,6 | ^E,4 !>![F,,^A,]2 | %16
 !>![B,,B,]2 z4 |: F,,,2 [F,^A,E]2 [F,A,E]2 | B,,,2 [F,B,D]2 [F,B,D]2 | E,,2 [G,B,]2 E,2 | %20
 F,E,C, F,,2 z | [A,,,A,,]2 [G,A,C]2 A,,2 | [D,,D,]2 [F,A,D]2 [^D,,^D,]2 | [E,,E,]6 | %24
 [F,,C,^A,]4 z2 |!p! z6 | z6 | z6 | z6 | ^A,6 | B,,6 | C,6 | D,6 | ^D,6 | E,6 | ^E,6 | z6 | %37
 F,,2 F,2 [^A,EF]2 | [B,,,B,,]2 F,2 [B,DF]2 | [E,,E,]2 B,2 [CEG]2 | (F/^E/=E) ^D2 z2 | %41
 B,,,2 [A,B,^D]2 B,,2 | [E,,E,]2 [G,B,E]2 [G,B,E]2 | F,,2 ^G,2 [F,^A,]2 |1 %44
 [B,,B,]2 [B,,,B,,]2 z2 :|2 [B,,B,]2 [B,,,B,,]2 z2 |:[K:B] B,,,2 ([F,B,D]2 [E,B,]2) | D,4 =D,2 | %48
 C,6 | F,,,6 | D,6 | B,2 B,4 | (^E,2 B,2) C,2 | F,,,6 | B,,,2 ([F,B,D]2 [E,B,]2) | D,4 =D,2 | %56
 (C,=C,) B,,2 F,B,- | B,^B,CD E2 | E,,2 (B,2 [=G,B,]2) | B,2 B,2- B,2 |1 [C,,C,]6 | (B,2 A,2 G,2) | %62
 [F,,,F,,]6 | z6 | z6 :|2 [C,,C,]6 | (B,2 A,2 G,2) | !fermata![F,,,F,,]6 | [D,,D,]6- | %69
 !fermata![D,,D,]6 |] %70
V:3
 x6 | z2 ^E3 (E | =E2) x4 | z2 (E2 D2-) | D2 x4 | x6 | x6 | x6 | x6 | x6 | z2 ^E3 (E | =E2) x4 | %12
 z2 (E2 [DF]2) | x2 z4 | x2 z4 | x6 | x6 |: x6 | x6 | x6 | x6 | x6 | x6 | x6 | x6 | %25
 x2 [AB]2 [=DE^G]2 | x2 (B2 A2) | x2 [=GA]2 [=CDF]2 | x2 (A2 G2) | x6 | x6 | x6 | x6 | x6 | %34
 x2 [B,G]2 [G,E]2 | z2 [DB]2 [B,G]2 | !arpeggio![C^A]6 | x6 | x6 | x6 | [^Ac][=A=c] [AB]2 x2 | x6 | %42
 x6 | F2 ^E2 =E2 |1 x6 :|2 x6 |:[K:B] x6 | x6 | A2 AAAA | x6 | x6 | D2 x4 | x6 | =E4- EF | x6 | %55
 x6 | [=Ae]2 [A^d]2 [Ac]2 | G4- GG | x6 | x6 |1 x6 | x6 | x6 | ^^c2- c4- | c4 x2 :|2 %65
 x2 !fermata![gbe'g']4 | x6 | !arpeggio![A,EFc]4 F>(F | [D-B]6)!8va(! | d6!8va)! |] %70
V:4
 x6 | x6 | x6 | x6 | x2 ([B,D]2 [_B,E]2) | x2 [A,D]2 [=F,B,D]2 | x2 [^G,DF]2 [G,DE]2 | x6 | x6 | %9
 x6 | x6 | x6 | x6 | x2 [B,D]2 [CE]2 | x2 ([DF]2 B,2) | x6 | x6 |: x6 | x6 | x6 | x6 | x6 | x6 | %23
 x2 !fermata![B,CEG]4 | x6 | x6 | x6 | x6 | x6 | x2 ([EF]2 F,2) | x2 ([B,DF]2 F,2) | %31
 x2 ([G,E]2 B,2) | x2 ([B,F]2 F,2) | x2 ([B,F]2 A,2) | x6 | x6 | F,6 | x6 | x6 | x6 | F,2 B,2 x2 | %41
 x6 | x6 | x6 |1 x6 :|2 x6 |:[K:B] x6 | x2 (B,2 B,2) | x2 F,2 [A,E]2 | x GFECF, | %50
 x2 (B,2 [F,A,]2) | B,,2 (G,2 F,2) | x6 | x2 (G,2 ^A,2) | x6 | x2 B,2 B,2 | x6 | (E,4 E,2) | x6 | %59
 (F,2 E,2 D,2) |1 x2 !fermata![G,B,E]4 | x6 | x6 | x6 | x6 :|2 x2 !fermata![G,B,E]4 | x6 | x6 | %68
 x6 | x6 |] %70
V:5
 x6 | x6 | x6 | x6 | x6 | x6 | x6 | x6 | x6 | x6 | x6 | x6 | x6 | x6 | x6 | x6 | x6 |: x6 | x6 | %19
 x6 | x6 | x6 | x6 | x6 | x6 | ^D6 | [CE]6 | C6 | [B,D]6 | x6 | x6 | x6 | x6 | x6 | x6 | x6 | x6 | %37
 x6 | x6 | x6 | x6 | x6 | x6 | x6 |1 x6 :|2 x6 |:[K:B] x6 | x6 | x6 | x6 | x6 | x6 | x6 | x6 | x6 | %55
 x6 | x6 | x6 | x6 | x6 |1 x6 | x6 | x6 | x6 | x6 :|2 x6 | x6 | x6 | x4!8va(! x2 | x6!8va)! |] %70

